X: 7
T: The Four Courts
R: reel
M: 4/4
L: 1/8
K: Amix
||eA ~A2 eAfA | eA A2 d2 cd | eA ~A2 fd ~d2 | fage d2 af |
eA A2 eAfA | eA A2 d2 cd | eA A2 fd d2 | fage d2 dc ||
||B2 gB aBgB | B2 ge d2 cd | B2 gB aBgB | fage d2-d2 |
B2 gB aBgB | B2 ge d2 fg | a2-af ge ~e2 | fage d2 cd ||
||e3 e f3 f | efec d2 cd | e3 e fd ~d2 | fage d2 af |
e3 e f3 f | efec d2 fg | a2 af ge ~e2 | fage d2 cd ||


Tune 2278	Setting 2278

